X:1
T:Title
%%score { ( 1 3 ) | 2 }
L:1/8
M:3/4
K:G
V:1 treble nm="Grand Piano"
V:3 treble 
V:2 bass 
V:1
 z2 z2[Q:1/4=108] DD | G2 G2 G2 | G4 GG | [FA]4 [FB]2 | A2 G2 z A | B2 B2 B2 | B4 B2 | B4 [Ac]2 | %8
 [GB]2 [FA]2 [DG][DFA] | [DGB]4 [CFA][CFA] | [G,B,G]6 |[M:1/4] DD |[M:3/4] G4 GG | B4 GG | %14
 [FA]4 [FA][FA] | [Ac]6 |[M:1/4] [Ac][Ac] |[M:3/4] B2 B2 c2 |[M:4/4] d6 BG | [DGB]6 [CDA][CDA] | %20
[M:2/4] [G,B,DG]4 |] %21
V:2
 z2 z2 [G,B,][G,B,] | [G,B,D]2 [G,B,D]2 [G,B,D]2 | [G,B,D]4 [G,B,D][G,B,D] | [D,C]4 [D,D]2 | %4
 [G,CG]2 [G,B,]2 [G,B,][G,C] | [G,DG]2 [G,DG]2 [G,DG]2 | [G,DG]4 [G,DG]2 | [G,DG]4[K:bass] [G,D]2 | %8
 [D,D]2 [D,D]2 B,,D, | G,4 D,D, | G,,6 |[M:1/4] [G,B,][G,B,] | %12
[M:3/4][K:treble] [G,B,D]4 [G,B,D][G,B,D] | [G,DG]4 [G,B,][K:bass][G,B,] | [D,D]4 [D,D][D,D] | %15
 [D,D]6 |[M:1/4] [D,D][D,D] |[M:3/4][K:treble] [G,DG]2 [G,G]2 [G,A,G]2 | %18
[M:4/4] [G,B,G]6 [G,DG][K:bass][G,B,] | D,6 D,D, |[M:2/4] G,,4 |] %21
V:3
 x6 | x6 | x6 | x6 | z2 z2 G2 | x6 | x6 | x6 | x6 | x6 | x6 |[M:1/4] x2 |[M:3/4] x6 | x6 | x6 | %15
 x6 |[M:1/4] x2 |[M:3/4] x6 |[M:4/4] x8 | x8 |[M:2/4] x4 |] %21

